!!!COM:	Ockeghem, Johannes
!!!CDT:	~1425-1497/02/06
!!!OPR:	Missa Mi mi
!!!ONM:	4
!!!OTL:	Sanctus
!!!AGN:	Mass; Sanctus
!!!SCT:	Ock1010d
!!!voices:	4
!!!voices-OPR:	4
**kern	**kern	**kern	**kern
*staff4	*staff3	*staff2	*staff1
*Ivox	*Ivox	*Ivox	*Ivox
*I"Bassus	*I"Tenor	*I"Altus	*I"Superius
*I'B	*I'T	*I'A	*I'S
*clefF4	*clefGv2	*clefGv2	*clefG2
*>[A,B,C,D,E,C]	*>[A,B,C,D,E,C]	*>[A,B,C,D,E,C]	*>[A,B,C,D,E,C]
*>A	*>A	*>A	*>A
*k[]	*k[]	*k[]	*k[]
*M3/1	*M3/1	*M3/1	*M3/1
*met(O)	*met(O)	*met(O)	*met(O)
=1-	=1-	=1-	=1-
!!section: Sanctus
!!!OMD: Sanctus
1.E	1E	1.B	[0.e
.	2.G/	.	.
2AA/	.	2A/	.
.	4F/	.	.
1AA	1A	[1c	.
=2	=2	=2	=2
1E	1G	1c]	1e]
0F	0D	0d	2.d/
.	.	.	4c/
.	.	.	1A
=3	=3	=3	=3
0E	0B	[0.e	1G
.	.	.	1r
1C	1c	.	1g
=4	=4	=4	=4
1E	1B	1e]	1g
0F	2A/	2.d\	1.a
.	1c	.	.
.	.	4c\	.
.	.	1A	.
.	4B\	.	2g/
.	4A/	.	.
=5	=5	=5	=5
1G	1G	1.d	1b
2F\	2A/	.	2a/
2E\	2B\	1e	1g
1C	2c\	.	.
.	2A/	2c\	2cc\
=6	=6	=6	=6
1GG	1G	2d\	2b\
.	.	1e	1g
1r	2E/	.	.
.	2.F/	2c\	2.a/
1r	.	2B\	.
.	4G/	.	4g/
.	[2F/	2c\	[2a/
=7	=7	=7	=7
!!linebreak:original
1r	2F/]	2A/	2a/]
.	2D/	1d	2f/
1r	1A	.	1e
.	.	2c#i\	.
1D	2r	1d	1d
.	2F/	.	.
=8	=8	=8	=8
2E\	2G/	2B\	1r
2.G\	2B-i\	2G/	.
.	1A	1D	2.d/
4E\	.	.	.
2F\	.	.	.
.	.	.	4e/
1G	2B-i\	2r	[1g
.	2G/	[2d\	.
=9	=9	=9	=9
1D	1A	1.d]	2g/]
.	.	.	2f/
1E	2r	.	2.g/
.	2G/	2c\	.
.	.	.	4e/
2.D\	2.A/	1d	2.f/
4C/	4B\	.	4g/
=10	=10	=10	=10
2AA/	2c\	1e	2a/
1GG	2B\	.	2.b\
.	1G	2d\	.
.	.	.	4g/
1C	.	2c\	2.g/
.	1c	1e	.
.	.	.	4a/
2AA/	.	.	2cc\
=11	=11	=11	=11
1D	2r	1d	2b\
.	2F/	.	1a
1E	1G	2.c\	.
.	.	.	1g
.	.	4B\	.
1D	1A	1d	.
.	.	.	2f#i/
=12	=12	=12	=12
1GG	0.G	1d	1g
0C	.	1.e	1r
.	.	.	1e
.	.	4d\	.
.	.	4e\	.
=13	=13	=13	=13
1r	1F	0f	1.a
1r	1c	.	.
.	.	.	2g/
1C	1G	1e	2.g/
.	.	.	4f/
=14	=14	=14	=14
!!linebreak:original
1.F	0.r	1A	1d
.	.	2d\	1r
2D\	.	2.d\	.
1E	.	.	1g
.	.	4c#i\	.
.	.	4c#i\	.
.	.	4B\	.
=15	=15	=15	=15
1D	1F	0d	1a
1GG	1G	.	1b
1r	1A	1c	2cc\
.	.	.	2a/
=16	=16	=16	=16
1AA	1c	1A	1.a
0E	0B	1E	.
.	.	.	2g#i/
.	.	1e	2g#i/
.	.	.	2f#i/
=17	=17	=17	=17
1F	0A	1c	1a
1.D	.	0d	2a/
.	.	.	1f
.	1D	.	.
4C/	.	.	[2a/
4BB/	.	.	.
=18	=18	=18	=18
1AA	1C	2e\	4a/]
.	.	.	4g/
.	.	2c\	1e
1GG	2.G/	1B	.
.	.	.	2.g/
.	4A/	.	.
1r	2B\	2G/	.
.	.	.	4f/
.	[2c\	[2A/	2e/
=19	=19	=19	=19
0.r	4c\]	4A/]	1d
.	4A/	4F/	.
.	2B\	2G/	.
.	2A/	2A/	2c/
.	1A	2F/	2A/
.	.	1E	1B
.	2G/	.	.
=20	=20	=20	=20
1AA	2A/	1E	1A
.	2c\	.	.
1D	2A/	1F	1r
.	1B-	.	.
1E-	.	1G	1g
.	2G/	.	.
=21	=21	=21	=21
!!pagebreak:original
2r	1F	2r	1a
2F\	.	1c	.
2E\	0c	.	2g/
1C	.	2G/	1e
.	.	2A/	.
2AA/	.	2F/	2c/
=22	=22	=22	=22
2GG/	2B\	2G/	2d/
1.AA	2.A/	1E	2c/
.	.	.	2.e/
.	4G/	.	.
.	1E	2A/	.
.	.	.	4d/
1E	.	2G/	1B
.	2G/	2E/	.
=23	=23	=23	=23
0AA	2A/	1.E	2.c/
.	1c	.	.
.	.	.	4A/
.	.	.	2a/
.	2A/	2F/	1a
1E	1B	1G	.
.	.	.	2g/
=24	=24	=24	=24
1F	1A	2r	1a
.	.	2D/	.
2D\	2F/	2F/	2a/
1E	2E/	2C/	2.g/
.	[1G	2.c\	.
.	.	.	4e/
2C/	.	.	2e/
.	.	4A/	.
=25	=25	=25	=25
2BB/	2G/]	2B\	2d/
2AA/	1A	1c	2.f/
1C	.	.	.
.	.	.	4e/
.	2E/	2c\	1e
1D	1F	2.A/	.
.	.	.	2d/
.	.	4G/	.
=26	=26	=26	=26
1AA	[0.El	1A	[0.el
1r	.	0B	.
1E	.	.	.
=27	=27	=27	=27
0.El	0.E]	0.Bl	0.e]
!!linebreak:original
!!LO:LB:i:g=z
=28||	=28||	=28||	=28||
*>B	*>B	*>B	*>B
!!section: Pleni
!!!OMD: Pleni
*M3/1	*M3/1	*M3/1	*M3/1
*met(O)	*met(O)	*met(O)	*met(O)
0.r	0.r	1A	1.e
.	.	2c\	.
.	.	2d\	2f/
.	.	2e\	2g/
.	.	4d\	4f/
.	.	4e\	4g/
=29	=29	=29	=29
0.r	0.r	2.f\	0a
.	.	4e\	.
.	.	2c\	.
.	.	1d	.
.	.	.	2.a/
.	.	2f\	.
.	.	.	4f/
=30	=30	=30	=30
0.r	0.r	0e	2.g/
.	.	.	4a/
.	.	.	2b\
.	.	.	2.cc\
.	.	2c\	.
.	.	.	4a/
.	.	2d\	[2b\
=31	=31	=31	=31
0.r	0.r	1e	4b\]
.	.	.	4a/
.	.	.	4g/
.	.	.	4f/
.	.	2A/	2e/
.	.	2c\	1a
.	.	1B	.
.	.	.	2g#i/
=32	=32	=32	=32
1AA	1.E	1A	1a
2C/	.	1r	1r
2D\	2F/	.	.
2E\	2G/	1r	1r
4D\	4F/	.	.
4E\	4G/	.	.
=33	=33	=33	=33
2.F\	[0.A	0.r	0.r
4E\	.	.	.
2C/	.	.	.
2.D\	.	.	.
8C/L	.	.	.
8BB/J	.	.	.
[2AA/	.	.	.
=34	=34	=34	=34
2AA/]	0A]	0.r	0.r
2D\	.	.	.
2C/	.	.	.
2D\	.	.	.
1E	1G	.	.
=35	=35	=35	=35
!!linebreak:original
2.AA/	0A	0.r	0.r
4BB/	.	.	.
2C/	.	.	.
2.D\	.	.	.
.	1A	.	.
4C/	.	.	.
4BB/	.	.	.
4AA/	.	.	.
=36	=36	=36	=36
2GG/	1B	0.r	0.r
2.D\	.	.	.
.	1A	.	.
4C/	.	.	.
2D\	.	.	.
2E\	2.G/	.	.
[2G\	.	.	.
.	[4E/	.	.
=37	=37	=37	=37
2G\]	4E/]	0.r	0.r
.	4C/	.	.
2F\	2D/	.	.
1G	2E/	.	.
.	1G	.	.
1A	.	.	.
.	2F#i/	.	.
=38	=38	=38	=38
0Gl	1G	1r	1r
.	1r	1r	1r
1r	1G	1d	1b
=39	=39	=39	=39
0.r	1C	1e	1cc
.	1G	2d\	2b\
.	.	2B\	1g
.	2E/	1c	.
.	[2F/	.	[2a/
=40	=40	=40	=40
0.r	2F/]	2A/	4a/]
.	.	.	4g/
.	2E/	2B\	2g/
.	1C	1c	2a/
.	.	.	1cc
.	1G	1d	.
.	.	.	2b\
=41	=41	=41	=41
0.r	2F/	2r	2a/
.	4E/	1c	4g/
.	4D/	.	4f/
.	1C	.	1.e
.	.	4B\	.
.	.	4A/	.
.	2E/	2G/	.
.	[2D/	[2A/	[2f/
=42	=42	=42	=42
!!linebreak:original
0.r	2D/]	2A/]	2f/]
.	2C/	1c	2e/
.	1G	.	2.d/
.	.	2B\	.
.	.	.	4c/
.	1Cl	1c	2.e/
.	.	.	4c/
=43	=43	=43	=43
0.r	0.r	2r	2d/
.	.	2.c\	2c/
.	.	.	2.g/
.	.	4B\	.
.	.	2c\	.
.	.	.	4a/
.	.	2d\	4b\
.	.	.	8a/L
.	.	.	8b/J
.	.	2A/	[2cc\
=44	=44	=44	=44
0.r	0.r	2c\	4cc\]
.	.	.	4a/
.	.	2G/	2b\
.	.	4c\	2g/
.	.	4B\	.
.	.	4A/	1a
.	.	4G/	.
.	.	2F/	.
.	.	2G/	[2g/
=45	=45	=45	=45
0.r	0.r	1A	2g/]
.	.	.	2f#i/
.	.	0Gl	0gl
!!LO:LB:i:g=z
=46||	=46||	=46||	=46||
*>C	*>C	*>C	*>C
!!section: Osanna
!!!OMD: Osanna
*M3/1	*M3/1	*M3/1	*M3/1
*met(O)	*met(O)	*met(O)	*met(O)
1.C	0.c	0G	1.e
2D\	.	.	2f/
1E	.	2.c\	1g
.	.	4d\	.
=47	=47	=47	=47
1E	1B	0.e	1g
2C/	1c	.	2e/
2D\	.	.	1a
1E	1B	.	.
.	.	.	2g/
=48	=48	=48	=48
2AA/	2A/	1e	2a/
2E\	2G/	.	2b\
2F\	2A/	2c\	2a/
1A	2F/	2A/	2.cc\
.	1E	1B	.
.	.	.	4a/
2G\	.	.	2b\
=49	=49	=49	=49
!!pagebreak:original
2A\	2r	2A/	2.cc\
2AA/	1c	2F/	.
.	.	.	4b\
2C/	.	1E	2g/
2AA/	2c\	.	1a
1E	1B	1r	.
.	.	.	2g#i/
=50	=50	=50	=50
1.F	0A	1.c	1a
.	.	.	1r
4E\	.	2A/	.
4F\	.	.	.
4G\	1B	1G	1d
4F\	.	.	.
4E\	.	.	.
4D\	.	.	.
=51	=51	=51	=51
1C	1c	1G	1e
2r	2A/	2A/	2f/
2E\	2G/	2B\	2g/
2F\	2c\	2A/	2a/
2G\	2B\	2G/	[2b\
=52	=52	=52	=52
2GG/	1G	2d\	2b\]
1C	.	1e	2g/
.	2r	.	2a/
2BB/	2G/	2.d\	2g/
1AA	1A	.	1cc
.	.	4B\	.
.	.	2c\	.
=53	=53	=53	=53
1GG	1B	0d	2b\
.	.	.	2g/
1D	1A	.	2f/
.	.	.	2.a/
1AA	2.c\	2.e\	.
.	.	.	4g/
.	.	.	[2e/
.	4B\	8d\L	.
.	.	8c\J	.
=54	=54	=54	=54
2r	1G	1B	2e/]
2G\	.	.	2d/
2D\	2A/	1.d	4f/
.	.	.	4g/
1F	2D/	.	1a
.	2F/	.	.
2E\	2G/	2c\	[2g/
=55	=55	=55	=55
1D	1A	1.d	2g/]
.	.	.	2f/
2r	1G	.	1g
2G\	.	2B\	.
2A\	2r	2c\	2e/
2B\	2G/	2d\	2d/
=56	=56	=56	=56
!!linebreak:original
1c	2A/	1A	2.f/
.	2B\	.	.
.	.	.	4g/
1C	1c	1G	1e
2r	2.F/	2.c\	2f/
2F\	.	.	[2a/
.	8E/L	4d\	.
.	8D/J	.	.
=57	=57	=57	=57
2E\	1C	1e	2a/]
1C	.	.	2g/
.	2.G/	2c\	2e/
1E	.	2B\	1g
.	4A/	.	.
.	2B\	1G	.
2C/	[2c\	.	2e/
=58	=58	=58	=58
1G	2c\]	1r	1d
.	2B\	.	.
1C	2c\	1E	1c
.	2.A/	.	.
2D\	.	2F/	2A/
.	4F/	.	.
2BB/	2G/	2D/	2B/
=59	=59	=59	=59
1AA	2A/	2E/	2c/
.	2F/	2A/	2A/
1C	1E	2G/	2r
.	.	2c\	2g/
2r	1D	2d\	2a/
[2D\	.	[2f\	2b-i\
=60	=60	=60	=60
2D\]	1A	4f\]	4a/
.	.	4e\	4f/
2C/	.	2e\	1e
2E\	2G/	2c\	.
2F\	2A/	2d\	1a
1E	2c\	[1e	.
.	2B\	.	2g/
=61	=61	=61	=61
4AA/	1A	1e]	2a/
2C/	.	.	.
.	.	.	2cc\
4D\	.	.	.
2E\	2G/	2B\	2b\
1AA	4F/	2.c\	1a
.	2A/	.	.
.	4F/	4d\	.
2C/	2E/	2e\	2g/
=62	=62	=62	=62
2D\	1D	2f\	2f/
2F\	.	2d\	2.a/
2E\	1C	1e	.
.	.	.	8g/L
.	.	.	8f/J
2.C/	.	.	2.e/
.	1G	2c\	.
4BB/	.	.	4c/
2GG/	.	2B\	4d/
.	.	.	4B/
=63	=63	=63	=63
!!linebreak:original
2r	2A/	2c\	2A/
2C/	2E/	2e\	4G/
.	.	.	2c/
4AA/	2F/	2A/	.
2D\	.	.	4d/
.	1E	2r	1e
4C/	.	.	.
2AA/	.	2c\	.
2BB/	2D/	2d\	[2f/
=64	=64	=64	=64
2AA/	2A/	2c\	4f/]
.	.	.	4e/
2BB/	2G/	2B\	4e/
.	.	.	8d/L
.	.	.	8e/J
1D	1F	1A	4f/
.	.	.	2d/
.	.	.	4c/
1r	[1El	[1Bl	[1el
=65	=65	=65	=65
1.G	0.E]	0.B]	0.e]
2E\	.	.	.
1El	.	.	.
!!LO:LB:i:g=z
!!LO:TX:rj:i:Y=30:t=fine
=66||	=66||	=66||	=66||
*>D	*>D	*>D	*>D
!!section: Benedictus
!!!OMD: Benedictus
*M2/1	*M2/1	*M2/1	*M2/1
*met(C|)	*met(C|)	*met(C|)	*met(C|)
[0E	0E	0r	0r
=67	=67	=67	=67
0E]	0G	0r	0r
=68	=68	=68	=68
1.F	1.A	0r	0r
4E\	4G/	.	.
4D\	4F/	.	.
=69	=69	=69	=69
1E	2G/	0r	0r
.	4A/	.	.
.	4B\	.	.
1AA	1c	.	.
=70	=70	=70	=70
!!linebreak:original
2r	2B\	0r	0r
2AA/	1c	.	.
2C/	.	.	.
2D\	2A/	.	.
=71	=71	=71	=71
1.E	1.G	0r	0r
2F\	2A/	.	.
=72	=72	=72	=72
2G\	2B\	0r	0r
4F\	4A/	.	.
4G\	4B\	.	.
2A\	2c\	.	.
[2E\	4B\	.	.
.	4A/	.	.
=73	=73	=73	=73
2E\]	2G/	0r	0r
2C/	1A	.	.
1BB	.	.	.
.	2G#i/	.	.
=74	=74	=74	=74
0AAl	0Al	0r	0r
!!LO:LB:i:g=z
=75||	=75||	=75||	=75||
*>E	*>E	*>E	*>E
!!section: Qui venit
!!!OMD: Qui venit
*M2/1	*M2/1	*M2/1	*M2/1
*met(C|)	*met(C|)	*met(C|)	*met(C|)
0r	0r	[0e	1.e
.	.	.	4f/
.	.	.	4g/
=76	=76	=76	=76
0r	0r	0e]	2a/
.	.	.	1g
.	.	.	4f/
.	.	.	4g/
=77	=77	=77	=77
!!pagebreak:original
0r	0r	[0f	2a/
.	.	.	2d/
.	.	.	2r
.	.	.	[2a/
=78	=78	=78	=78
0r	0r	0f]	1.a]
.	.	.	2f/
=79	=79	=79	=79
0r	0r	[0e	2.g/
.	.	.	4a/
.	.	.	2b\
.	.	.	[2cc\
=80	=80	=80	=80
0r	0r	0e_	2cc\]
.	.	.	4b\
.	.	.	4a/
.	.	.	2g/
.	.	.	2a/
=81	=81	=81	=81
0r	0r	0e]	2b\
.	.	.	1a
.	.	.	2g#i/
=82	=82	=82	=82
0r	0r	0Al	0a
=83	=83	=83	=83
0r	0D	0r	1r
.	.	.	1a
=84	=84	=84	=84
!!linebreak:original
0r	1E	0r	1g
.	1G	.	1e
=85	=85	=85	=85
0r	1.F	0r	1d
.	.	.	[1a
.	2D/	.	.
=86	=86	=86	=86
0r	1F	0r	1a]
.	1E	.	1g
=87	=87	=87	=87
0r	1D	0r	1.f
.	[1A	.	.
.	.	.	4e/
.	.	.	4d/
=88	=88	=88	=88
0r	1A]	0r	1c
.	1G	.	2d/
.	.	.	[2e/
=89	=89	=89	=89
0r	2F/	0r	4e/]
.	.	.	4d/
.	1F	.	4c/
.	.	.	4B/
.	.	.	[1A
.	4E/	.	.
.	4D/	.	.
=90	=90	=90	=90
0r	2.C/	0r	2A/]
.	.	.	4G/
.	4D/	.	4F/
.	2.E/	.	2.G/
.	4F/	.	4A/
=91	=91	=91	=91
!!linebreak:original
0r	2.G/	0r	4B/
.	.	.	4c/
.	.	.	2.d/
.	4A/	.	.
.	1B	.	.
.	.	.	4c/
.	.	.	2d/
=92	=92	=92	=92
0r	2E/	0r	2e/
.	1A	.	2c/
.	.	.	1B
.	2G/	.	.
=93	=93	=93	=93
0r	1.c	0r	1A
.	.	.	1r
.	2A/	.	.
=94	=94	=94	=94
0r	2B-\	0r	2.g/
.	4A/	.	.
.	4G/	.	4f/
.	2F/	.	[1a
.	4E/	.	.
.	4D/	.	.
=95	=95	=95	=95
0r	1C	0r	2a/]
.	.	.	2g/
.	4F/	.	2f/
.	4G/	.	.
.	4A/	.	2d/
.	4B\	.	.
=96	=96	=96	=96
0r	1c	0r	2e/
.	.	.	2.a/
.	2F/	.	.
.	.	.	4f/
.	4G/	.	[2f/
.	[4A/	.	.
=97	=97	=97	=97
0r	4A/]	0r	4f/]
.	4F/	.	4d/
.	2G/	.	2e/
.	2A/	.	1A
.	[2D/	.	.
=98	=98	=98	=98
!!linebreak:original
0r	2D/]	0r	2B/
.	2C/	.	1A
.	2D/	.	.
.	2BB/	.	2d/
=99	=99	=99	=99
0r	1.AA	0r	2c/
.	.	.	1e
.	2BB/	.	2d/
=100	=100	=100	=100
0r	2.C/	0r	2c/
.	.	.	4B/
.	4D/	.	4A/
.	2BB/	.	1G
.	[2E/	.	.
=101	=101	=101	=101
0r	2E/]	0r	1r
.	2C/	.	.
.	1BB	.	1g
=102	=102	=102	=102
0r	1AA	0r	1a
.	2r	.	2g/
.	[2A/	.	2a/
=103	=103	=103	=103
0r	2A/]	0r	2f/
.	2G/	.	1e
.	2A/	.	.
.	2F/	.	[2a/
=104	=104	=104	=104
0r	1D	0r	4a/]
.	.	.	4g/
.	.	.	2a/
.	2A/	.	2f/
.	2F/	.	[2d/
=105	=105	=105	=105
!!pagebreak:original
0r	2G/	0r	2d/]
.	1A	.	2f/
.	.	.	2e/
.	2AA/	.	[2f/
=106	=106	=106	=106
0r	2D/	0r	4f/]
.	.	.	4d/
.	2F/	.	1d
.	1E	.	.
.	.	.	2c#i/
=107	=107	=107	=107
0r	0Dl	0r	0dl
!!LO:TX:i:Y=40:rj:t=Osanna ut supra
=||	=||	=||	=||
*-	*-	*-	*-
!!!RDF**kern: l=long note in original notation
!!!RDF**kern: i=editorial accidental
!!!ENC:	Will Watson 30/01/2012
!!!END:	2012/01/30/
!!!EED:	Jesse Rodin
!!!EEV:	2012/03/14/
!!!ONB:	Translated from MusicXML and edited on 2012/03/14/ by Craig Sapp
!!muse2ps: T^@{OPR}^u^@{ONM}{. }@{OTL}^C^@{COM}^i2I100v85,90,85,150Q16
